X: 53
T: Akşam Olunca Yarelerim Sızlar
C: Nazif Girgin
O: Turkey
F: http://compmusic.upf.edu/node/140
N: muhayyerkurdi--sarki--curcuna--aksam_olunca--nazif_girgin
N: makam= muhayyerkurdi
N: form= sarki
N: usul= curcuna = 10/8
M: 10/8
L: 1/16
K: C _B   
Q: 1/4=216
%%MIDI tuningsystem comma53
a2g2 b2a2 g2f2 g2a6  | e2f2 a2g2 f2e2 g2f6  | \
w:  ARANAĞME  |   | 
d2e2 f2e2 d2c2 _e2d2 c2B2  | 
w:   | 
A2B2 _e2d2 c2BA BcA6  | a2g2 b2a2 g2f2 g2a6  | \
w:   |  ARANAĞME  | 
e2f2 a2g2 f2e2 g2f6  | 
w:   | 
d2e2 f2e2 d2c2 _e2d2 c2B2  | A2B2 _e2d2 c2BA BcA6  | \
w:   |   | 
g6a4a4a4g2  | 
w:  Ak şam  o lun  | 
b6b2 a2a2 g2g4f2  | a3g f2f2 e2f8-f2  | \
w:  ca  ya *  re *  le  |  rim  *  *  sız *  lar    | 
g2a2 b2a2 g2f2 g2a6  | 
w:  SAZ  | 
z4 g2a4a4a4g2  | b6b2 a2a2 g2g4f2  | \
w:  Der dim  çok tur   |  değ me *  yin  *  ba  | 
a3g f2f2 e2f8-f2  | g2a2 b2a2 g2f2 g2a6  | 
w:  na  *  *  kız *  lar    |  SAZ  | 
z4 g2a4a4a4g2  | b6b2 a2a2 g2g2 f2e2  | \
w:  Bu  aş kı ma   |  şa hit  *  ol *  sun   | 
e4 d2d2 c2c2 d2e2 f2e2  | 
w:  yıl *  dız *  lar    | 
f4 e2f4f4a4g2  | g4 f2f2 e2e2 d2d4c2  | \
w:  *  Ye ter  Al la  |  hım  *  çek *  ti *  ğim   | 
_e3d c2B2 A2B8-B2  | 
w:  ah  *  *  ye *  ter    | 
A2B2 _e2d2 c2B2 A2B6  | z4 A2B4c4d6  | \
w:  SAZ  |  Bu  ay rı lık   | 
z4 _e2e2 d2d2 c2c2 B2A2  | 
w:  ba na  *  ö *  lüm  | 
d3c B2B2 A2A8-A2  | e2f2 a2g2 f2e2 g2f6  | \
w:  den  *  *  be *  ter    |  SAZ  | 
f4 e2f4f4a4g2  | 
w:  *  Ye ter  Al la  | 
g4 f2f2 e2e2 d2d4c2  | _e3d c2B2 A2B8-B2  | \
w:  hım  *  çek *  ti *  ğim   |  ah  *  *  ye *  ter    | 
A2B2 _e2d2 c2B2 A2B6  | 
w:  SAZ  | 
z4 A2B4c4d6  | z4 _e2e2 d2d2 c2c2 B2A2  | \
w:  Bu  ay rı lık   |  ba na  *  ö *  lüm  | 
d3c B2B2 A2A8-A2  | 
w:  den  *  *  be *  ter    | 
e2f2 a2g2 f2e2 g2f6  | a2g2 b2a2 g2f2 g2a6  | \
w:  SAZ  |  ARANAĞME  | 
e2f2 a2g2 f2e2 g2f6  | 
w:   | 
d2e2 f2e2 d2c2 _e2d2 c2B2  | A2B2 _e2d2 c2BA BcA6  | \
w:   |   | 
a2g2 b2a2 g2f2 g2a6  | 
w:  ARANAĞME  | 
e2f2 a2g2 f2e2 g2f6  | d2e2 f2e2 d2c2 _e2d2 c2B2  | \
w:   |   | 
A2B2 _e2d2 c2BA BcA6  | 
w:   | 
g6a4a4a4g2  | b6b2 a2a2 g2g4f2  | a3g f2f2 e2f8-f2  | \
w:  Ak şam  o lun  |  ca  ya *  re *  le  |  rim  *  *  sız *  lar    | 
g2a2 b2a2 g2f2 g2a6  | 
w:  SAZ  | 
z4 g2a4a4a4g2  | b6b2 a2a2 g2g4f2  | \
w:  Der dim  çok tur   |  değ me *  yin  *  ba  | 
a3g f2f2 e2f8-f2  | g2a2 b2a2 g2f2 g2a6  | 
w:  na  *  *  kız *  lar    |  SAZ  | 
z4 g2a4a4a4g2  | b6b2 a2a2 g2g2 f2e2  | \
w:  Bu  aş kı ma   |  şa hit  *  ol *  sun   | 
e4 d2d2 c2c2 d2e2 f2e2  | 
w:  yıl *  dız *  lar    | 
f4 e2f4f4a4g2  | g4 f2f2 e2e2 d2d4c2  | \
w:  *  Ye ter  Al la  |  hım  *  çek *  ti *  ğim   | 
_e3d c2B2 A2B8-B2  | 
w:  ah  *  *  ye *  ter    | 
A2B2 _e2d2 c2B2 A2B6  | z4 A2B4c4d6  | \
w:  SAZ  |  Bu  ay rı lık   | 
z4 _e2e2 d2d2 c2c2 B2A2  | 
w:  ba na  *  ö *  lüm  | 
d3c B2B2 A2A8-A2  | |


